X:143
U: ~ = !turn!
%%topmargin 3cm
T:Navvy on the Shore
B:Traditional Irish Fiddle Tunes. Randy Miller and Jack Perron.
Z:Transcribed by Ralph Palmer
R:Reel
M:C|
L:1/8
K:G
GA | B2 ge dBGB | AGAB AGEF | G2 ge dBGB | AGAB ((3ABA) GA |
B2 ge dBGB | AGAB AG E2 | ~g3 d edBG | AGFA ~G3 z ||
((3{/a}gfg) BA GABd | eBdB GABd | g2 BA GABd | eBdB AG E2 |
((3{/a}gfg) BA GA ((3Bcd) | ed ((3cBA) GABd | ~g3 d edBG | AGFA ~G3 z |]
